vendor/shopware/storefront/Resources/app/storefront/dist/assets/icon/default/chart-pie.svg

<svg xmlns="http://www.w3.org/2000/svg" width="24" height="24" viewBox="0 0 24 24">
  <path fill="#758CA3" fill-rule="evenodd" d="M20.9883049,14 C20.7273284,19.5668168 16.1313769,24 10.5,24 C4.70101013,24 0,19.2989899 0,13.5 C0,7.86862308 4.4331832,3.27267158 10,3.0116951 L10,2 C10,1.44771525 10.4477153,1 11,1 C17.627417,1 23,6.372583 23,13 C23,13.5522847 22.5522847,14 22,14 L20.9883049,14 Z M10,5.01446179 C5.53831026,5.27327069 2,8.97342702 2,13.5 C2,18.1944204 5.80557963,22 10.5,22 C15.026573,22 18.7267293,18.4616897 18.9855382,14 L11,14 C10.4477153,14 10,13.5522847 10,13 L10,5.01446179 Z M12,3.04937524 L12,12 L20.9506248,12 C20.4815561,7.27558355 16.7244165,3.51844387 12,3.04937524 Z"/>
</svg>

<svg xmlns="http://www.w3.org/2000/svg" width="24" height="24" viewBox="0 0 24 24"><path fill="#758CA3" fill-rule="evenodd" d="M20.9883 14c-.261 5.5668-4.857 10-10.4883 10C4.701 24 0 19.299 0 13.5 0 7.8686 4.4332 3.2727 10 3.0117V2c0-.5523.4477-1 1-1 6.6274 0 12 5.3726 12 12 0 .5523-.4477 1-1 1h-1.0117zM10 5.0145c-4.4617.2588-8 3.959-8 8.4855 0 4.6944 3.8056 8.5 8.5 8.5 4.5266 0 8.2267-3.5383 8.4855-8H11c-.5523 0-1-.4477-1-1V5.0145zm2-1.9651V12h8.9506C20.4816 7.2756 16.7244 3.5184 12 3.0494z"/></svg>
